// t:テンポ
// l:音の長さ4/4=4 
// o:オクターブ
// q:音の長さ 100
// v:音の大きさ v/128
// track分けるには;で区切る
// []:和音
// /::/N N回繰り返し
// $ 無限繰り返し
// @ 音色
// @e[attack,decay,sustain,release] エンベロープ
// @m1 @m0 ミュートON/OFF

t120 l8 o4 q90 v50 @0 @e[0,0,1,0.2] @m0
    $ cdef g4 f4 e4 d4 cdef g4 f4 e4 d4
;
t120 l8 o3 q90 v50 @0 @e[0,0,1,0.2] @m0
    $ g2 a2 b2 c2 d2 e2 f2 g2
;
t120 l8 o2 q90 v80 @0 @e[0,0,1,0.2] @m0
    $ c2 c2 g2 g2 f2 f2 e2 e2
;
t120 l8 o4 q90 v50 @0 @e[0,0,1,0.2] @m0
    $ cc cc gg gg cc cc gg gg
;
t120 l16 o5 q90 v40 @0 @e[0,0,1,0.2] @m0
    $ g+ c+ e+ g+ <c+ e+ g+ c+> g+ c+ e+ g+ <c+ e+ g+ c+>
;