// t:テンポ
// l:音の長さ4/4=4 
// o:オクターブ
// q:音の長さ 100
// v:音の大きさ v/128
// track分けるには;で区切る
// []:和音 ※未対応
// /::/N N回繰り返し
// $ 無限繰り返し
// @ 音色
// @e[attack,decay,sustain,release] エンベロープ
// @m1 @m0 ミュートON/OFF
// @w[0～15,n] Waveチャンネルの場合、波形を変更

t120 l8 o4 q90 v50 @0 @e[0,0.1,1,0] @m0
cde4.<g>e4d2
cde2^8agec4d2
fa>c2^8<b>cdc4<a2
gab4b>c<ba4ga2.
;
t120 l8 o5 q90 v50 @0 @e[0,0.1,0.6,0.2] @m0
;
t120 l8 o5 q90 v50 @0 @e[0,0.1,0.6,0.2] @m0
;

t120 l8 o3 q90 v50 @0 @e[0,0.01,0.6,0] @m0
/:crcrcrcr:10
;